X:1
T:Title
%%score { ( 1 4 ) | ( 2 3 ) }
L:1/8
M:6/4
K:G
V:1 treble nm="Grand Piano"
V:4 treble 
V:2 bass 
V:3 bass 
V:1
 z6 z4[Q:1/4=123] G2 | [EG]2 F2 G2 [CEc]2 B2 A2 | [EG]2 E2 =F2 [EG]4 [G,EG]2 | %3
 [CEc]2 c2 c2 [D=Fd]2 [Ec]2 [DB]2 | [CEc]6- [CEc]4 [G,EG]2 | [EG]2 F2 G2 [CEc]2 B2 A2 | %6
 [EG]2 E2 =F2 [EG]4 A2 | B2 D2 [DG]2 [CFc]2 [GB]2 [FA]2 | [D=Fd]12 | [Ge]6 d2 e2 d2 | c12 | %11
 [CAc]6 [^GB]2 [Ac]2 [GB]2 | A6- A4 AA | A2 ^G2 A2 c2 B2 A2 | [EG]2 [^DF]2 [EG]2 [Ge]4 [Ge]2 | %15
 [Fe]2 [Fd]2 [Fc]2 [FA]2 [FB]2 [Fc]2 |[M:5/4] d2- d2- d6 |[M:6/4] [Ge]6 d2 e2 d2 | c12 | %19
 [CAc]6 [^GB]2 [Ac]2 [GB]2 | A6- A4 AA | A2 ^G2 A2 c2 B2 A2 | [EG]2 [^DF]2 [EG]2 [Ge]4 [Ge]2 | %23
[M:13/8] [Fe]2 [Fd]2 [FA]2 e2 d3 G2 |[M:5/4] c2- c2- c6 |] %25
V:2
 z6 z4 [G,E]2 | G,2 [F,^D]2 [G,E]2 z2[K:treble] [B,=F]2 [A,F]2 | z2 [E,C]2 [=F,D]2 .[C,G,C]6 | %3
 z2 [CE]2 [CE]2 z2 C2 B,2 | C,2 E,2 G,2 A,2 G,2 E,2 | %5
 [C,C]2- [C,-F,C-^D]2 [C,G,CE]2 z2[K:treble] [B,=F]2 [A,F]2 | z2 [E,C]2 [=F,D]2 G,4 [A,^D]2 | %7
 [D,B,D]2 D,2 D,2 z2 B,2 A,2 | G,2 F,2 G,2 B,2 A,2 G,2 | %9
 [C,C]6[K:treble] [G,B,=F]2 [G,CG]2 [G,B,F]2 | [A,E]6 z6 | =F,4 E,2 [E,E]2 [E,E]2 [E,D]2 | %12
 [=F,C]6- [F,C]4 [F,C=F][F,CF] | [=F,C=F]2 [F,B,F]2 [F,CF]2 [F,A,F]2 [F,B,F]2 [F,CF]2 | %14
 [C,C]2 [C,C]2 [C,C]2 [C,C]4 [C,C]2 | [D,A,]2 [D,A,]2 [D,A,]2 [D,D]2 [D,D]2 [D,A,]2 | %16
[M:5/4][K:treble] =F2- F2- F6[K:bass] |[M:6/4] [C,C]6[K:treble] [G,B,=F]2 [G,CG]2 [G,B,F]2 | %18
 [A,E]6 z6 | =F,4 E,2 [E,E]2 [E,E]2 [E,D]2 | [=F,C]6- [F,C]4 [F,C=F][F,CF] | %21
 [=F,C=F]2 [F,B,F]2 [F,CF]2 [F,A,F]2 [F,B,F]2 [F,CF]2 | [C,C]2 [C,C]2 [C,C]2 [C,C]4 [C,C]2 | %23
[M:13/8] [D,C]2 [D,C]2 [D,C]2[K:treble] [G,B,G]2 [G,B,=F]3 [G,B,F]2 |[M:5/4][K:bass] z4 A,2 G,4 |] %25
V:3
 x12 | [C,C]6 [C,G,]6[K:treble] | [C,G,]6 z6 | [C,G,]6 [G,,G,]6 | x12 | .G,6 [C,G,]6[K:treble] | %6
 [C,G,]6 [C,C]6 | G,6 D,6 | x12 | x6[K:treble] x6 | C6- [G,C]6 | x12 | x12 | x12 | x12 | x12 | %16
[M:5/4][K:treble] [G,B,]2 B,2 A,2[K:bass] G,4 |[M:6/4] x6[K:treble] x6 | C6- [G,C]6 | x12 | x12 | %21
 x12 | x12 |[M:13/8] x6[K:treble] x7 |[M:5/4][K:bass] C,2- C,2- C,6 |] %25
V:4
 x12 | x12 | x12 | x12 | x12 | x12 | x12 | z6 D6 | x12 | x12 | z6 _B6 | x12 | x12 | x12 | x12 | %15
 x12 |[M:5/4] z2 D2 C2 B,4 |[M:6/4] x12 | z6 _B6 | x12 | x12 | x12 | x12 |[M:13/8] x13 | %24
[M:5/4] [CE]4 =F2 E4 |] %25

